X:109
T:The Tenpenny Bit
R:jig
M:6/8
K:Amix
eAA eAA | BAB GBd | eAA eAA | def gfg |
eAA eAA | BAB GBd | edB gBB | BAA A3 ::
A2a aga | bge dBG | A2a aga | bag a2B |
A2a aga | bge dBd | edB gdB | BAA A3 :|
